img/megafon.svg

<svg width="160" height="88" viewBox="0 0 160 88" fill="none" xmlns="http://www.w3.org/2000/svg">
<path d="M129.764 42.1152V45.4788H125.074V42.1152H122.766V51.0054H125.074V47.4161H129.764V51.0054H132.085V42.1152H129.764Z" fill="white"/>
<path fill-rule="evenodd" clip-rule="evenodd" d="M89.3636 41.9141C90.1043 41.9141 90.8819 42.3063 91.2646 43.1145L95.0418 51.0063H92.5854L91.7583 49.1284H86.969L86.1419 51.0063H83.6855L87.4627 43.1145C87.8454 42.3063 88.623 41.9141 89.3636 41.9141ZM89.1785 44.1245L87.7589 47.3454H90.9683L89.5488 44.1245C89.5118 44.0175 89.4253 43.9937 89.3636 43.9937C89.3019 43.9937 89.2278 44.0294 89.1785 44.1245Z" fill="white"/>
<path d="M63.75 40.5117C62.6637 40.5117 61.9725 41.0703 61.4664 42.1875L58.4545 48.8671L55.4426 42.1875C54.9365 41.0703 54.2453 40.5117 53.1591 40.5117C52.1469 40.5117 51.0977 41.2129 51.0977 42.7224V51.0064H53.4059V42.9601L56.4425 49.5921C56.8498 50.5191 57.504 51.1015 58.4545 51.1015C59.405 51.1015 60.0592 50.5191 60.4665 49.5921L63.5031 42.9601V51.0064H65.8113V42.7343C65.8113 41.2129 64.7621 40.5117 63.75 40.5117Z" fill="white"/>
<path d="M69.8593 49.1275C69.7482 49.1275 69.6618 49.0443 69.6618 48.9374V47.3566H75.4263V45.5382H69.6618V44.1833C69.6618 44.0763 69.7482 43.9931 69.8593 43.9931H75.5621V42.1152H68.7237C67.9213 42.1152 67.3535 42.757 67.3535 43.4345V49.6624C67.3535 50.3398 67.9337 50.9816 68.7237 50.9816H75.5621V49.1038H69.8593V49.1275Z" fill="white"/>
<path d="M79.488 51.0057V44.1955C79.488 44.0885 79.5744 44.0053 79.6855 44.0053H85.3882V42.1274H78.5498C77.7475 42.1274 77.1797 42.7692 77.1797 43.4467V51.0057H79.488Z" fill="white"/>
<path fill-rule="evenodd" clip-rule="evenodd" d="M116.347 41.9858C119.841 41.9858 121.235 43.4358 121.235 46.5498C121.235 49.6162 119.816 51.0899 116.323 51.0899H115.557C112.064 51.0899 110.645 49.6162 110.645 46.5498C110.645 43.4358 112.027 41.9858 115.533 41.9858H116.347ZM115.568 49.2473H116.309C118.222 49.2473 118.987 48.4153 118.987 46.5493V46.5375C118.987 44.7309 118.272 43.8395 116.309 43.8395H115.568C113.544 43.8395 112.89 44.7309 112.89 46.5375V46.5493C112.89 48.4153 113.643 49.2473 115.568 49.2473Z" fill="white"/>
<path fill-rule="evenodd" clip-rule="evenodd" d="M99.6208 40.7251H104.2C107.607 40.7251 108.977 42.389 108.99 45.289C108.99 45.7407 108.953 46.1567 108.891 46.5489C108.533 48.605 107.274 49.8649 104.077 49.8649H103.077V51.0058H100.769V49.8649H99.7565C96.5595 49.8649 95.3005 48.605 94.9425 46.5489C94.8684 46.1567 94.8438 45.7407 94.8438 45.289C94.8438 42.389 96.2016 40.7251 99.6208 40.7251ZM100.755 47.9865H99.6934C98.1258 47.9865 97.5703 47.4279 97.2247 46.5484C97.0889 46.2037 97.0889 45.7758 97.0889 45.2885C97.0889 43.3988 98.0024 42.5906 99.3355 42.5906H100.755V47.9865ZM106.595 46.5484C106.25 47.4279 105.682 47.9865 104.127 47.9865H103.065V42.5906H104.485C105.818 42.5906 106.731 43.3869 106.731 45.2885C106.731 45.7758 106.731 46.2037 106.595 46.5484Z" fill="white"/>
<path fill-rule="evenodd" clip-rule="evenodd" d="M38.3213 46.4778V37.2905C42.8885 37.8254 46.4311 41.5811 46.4435 46.1213C46.4435 51.0418 42.296 55.0352 37.1857 55.0352C36.9018 55.0352 36.6179 55.0233 36.334 54.9996V47.2979C36.334 47.2504 36.371 47.2028 36.4327 47.2028H37.5684C37.9757 47.2028 38.3213 46.8819 38.3213 46.4778ZM38.1219 50.9944C37.48 50.9944 36.9615 50.4952 36.9615 49.8772C36.9615 49.2591 37.48 48.76 38.1219 48.76C38.7637 48.76 39.2822 49.2591 39.2822 49.8772C39.2822 50.4952 38.7637 50.9944 38.1219 50.9944ZM39.6781 49.8772C39.6781 50.4952 40.1965 50.9944 40.8384 50.9944C41.4803 50.9944 41.9987 50.4952 41.9987 49.8772C41.9987 49.2591 41.4803 48.76 40.8384 48.76C40.1965 48.76 39.6781 49.2591 39.6781 49.8772ZM42.3932 49.8772C42.3932 50.4952 42.9117 50.9944 43.5535 50.9944C44.1954 50.9944 44.7138 50.4952 44.7138 49.8772C44.7138 49.2591 44.1954 48.76 43.5535 48.76C42.9117 48.76 42.3932 49.2591 42.3932 49.8772Z" fill="white"/>
<path fill-rule="evenodd" clip-rule="evenodd" d="M27.916 46.1337C27.916 41.2132 32.0635 37.2197 37.1738 37.2197H37.1985V46.0386C37.1985 46.098 37.1491 46.1337 37.0997 46.1337H36.3221H35.9394C35.5444 46.1456 35.2235 46.4665 35.2111 46.8468V54.8456C31.039 53.9779 27.916 50.4124 27.916 46.1337ZM34.236 43.4477C34.236 44.0657 34.7545 44.5649 35.3963 44.5649C36.0382 44.5649 36.5566 44.0657 36.5566 43.4477C36.5566 42.8296 36.0382 42.3305 35.3963 42.3305C34.7545 42.3305 34.236 42.8296 34.236 43.4477Z" fill="white"/>
</svg>

<svg xmlns="http://www.w3.org/2000/svg" width="160" height="88" fill="none"><path fill="#fff" d="M129.764 42.115v3.364h-4.69v-3.364h-2.308v8.89h2.308v-3.589h4.69v3.59h2.321v-8.89h-2.321Z"/><path fill="#fff" fill-rule="evenodd" d="M89.364 41.914c.74 0 1.518.392 1.9 1.2l3.778 7.892h-2.457l-.827-1.878H86.97l-.827 1.878h-2.456l3.777-7.892a2.088 2.088 0 0 1 1.9-1.2Zm-.186 2.21-1.42 3.221h3.21l-1.42-3.22a.185.185 0 0 0-.184-.131c-.062 0-.136.035-.186.13Z" clip-rule="evenodd"/><path fill="#fff" d="M63.75 40.512c-1.086 0-1.778.558-2.284 1.675l-3.011 6.68-3.012-6.68c-.506-1.117-1.198-1.675-2.284-1.675-1.012 0-2.061.7-2.061 2.21v8.284h2.308V42.96l3.037 6.632c.407.927 1.061 1.51 2.012 1.51.95 0 1.604-.583 2.012-1.51l3.036-6.632v8.046h2.308v-8.272c0-1.521-1.049-2.222-2.061-2.222ZM69.86 49.127a.191.191 0 0 1-.198-.19v-1.58h5.764v-1.819h-5.764v-1.355c0-.107.086-.19.197-.19h5.703v-1.878h-6.838c-.803 0-1.37.642-1.37 1.32v6.227c0 .678.58 1.32 1.37 1.32h6.838v-1.878H69.86v.023ZM79.488 51.006v-6.81c0-.107.086-.19.198-.19h5.702v-1.879H78.55c-.802 0-1.37.642-1.37 1.32v7.559h2.308Z"/><path fill="#fff" fill-rule="evenodd" d="M116.347 41.986c3.494 0 4.888 1.45 4.888 4.564 0 3.066-1.419 4.54-4.912 4.54h-.766c-3.493 0-4.912-1.474-4.912-4.54 0-3.114 1.382-4.564 4.888-4.564h.814Zm-.779 7.261h.741c1.913 0 2.678-.832 2.678-2.698v-.011c0-1.807-.715-2.698-2.678-2.698h-.741c-2.024 0-2.678.89-2.678 2.697v.012c0 1.866.753 2.698 2.678 2.698ZM99.62 40.725h4.58c3.407 0 4.777 1.664 4.79 4.564 0 .452-.037.868-.099 1.26-.358 2.056-1.617 3.316-4.814 3.316h-1v1.14h-2.308v-1.14h-1.013c-3.197 0-4.456-1.26-4.814-3.316a6.788 6.788 0 0 1-.098-1.26c0-2.9 1.358-4.564 4.777-4.564Zm1.135 7.261h-1.062c-1.567 0-2.123-.558-2.468-1.438-.136-.344-.136-.772-.136-1.26 0-1.89.913-2.697 2.246-2.697h1.42v5.395Zm5.84-1.438c-.345.88-.913 1.438-2.468 1.438h-1.062v-5.395h1.42c1.333 0 2.246.796 2.246 2.697 0 .488 0 .916-.136 1.26ZM38.321 46.478V37.29c4.568.535 8.11 4.291 8.123 8.831 0 4.92-4.148 8.914-9.258 8.914-.284 0-.568-.012-.852-.035v-7.702c0-.048.037-.095.099-.095h1.135c.408 0 .753-.321.753-.725Zm-.2 4.516c-.641 0-1.16-.499-1.16-1.117s.519-1.117 1.16-1.117c.643 0 1.161.5 1.161 1.117 0 .618-.518 1.117-1.16 1.117Zm1.557-1.117c0 .618.519 1.117 1.16 1.117.642 0 1.16-.499 1.16-1.117s-.518-1.117-1.16-1.117c-.642 0-1.16.5-1.16 1.117Zm2.715 0c0 .618.519 1.117 1.16 1.117.642 0 1.16-.499 1.16-1.117s-.518-1.117-1.16-1.117c-.641 0-1.16.5-1.16 1.117Z" clip-rule="evenodd"/><path fill="#fff" fill-rule="evenodd" d="M27.916 46.134c0-4.92 4.147-8.914 9.258-8.914h.025v8.819c0 .059-.05.095-.1.095H35.94a.752.752 0 0 0-.728.713v7.999c-4.172-.868-7.295-4.434-7.295-8.712Zm6.32-2.686c0 .618.519 1.117 1.16 1.117.642 0 1.16-.5 1.16-1.117 0-.618-.518-1.117-1.16-1.117-.642 0-1.16.499-1.16 1.117Z" clip-rule="evenodd"/></svg>
